!!!COM:	Bach, Johann Sebastian
!!!CDT:	1685/02/21/-1750/07/28/
!!!OTL@@DE:	Wie sch&ouml;n leuchtet der Morgenstern
!!!SCT:	BWV 36(1) & 36(2)/4
!!!PC#:	86
!!!AGN:	chorale
!!!ONB: Same as No. 195 and No. 305
**kern	**kern	**kern	**kern
*ICvox	*ICvox	*ICvox	*ICvox
*Ibass	*Itenor	*Ialto	*Isoprn
*I"Bass	*I"Tenor	*I"Alto	*I"Soprano
*>[A,A,B]	*>[A,A,B]	*>[A,A,B]	*>[A,A,B]
*>norep[A,B]	*>norep[A,B]	*>norep[A,B]	*>norep[A,B]
*>A	*>A	*>A	*>A
*clefF4	*clefGv2	*clefG2	*clefG2
*k[f#c#]	*k[f#c#]	*k[f#c#]	*k[f#c#]
*D:	*D:	*D:	*D:
*M4/4	*M4/4	*M4/4	*M4/4
*met(c)	*met(c)	*met(c)	*met(c)
*MM100	*MM100	*MM100	*MM100
4D	4F#	4A	4d
=1	=1	=1	=1
4C#	4E	4A	4a
8DL	8DL	4A	8f#L
8C#J	8EJ	.	8eJ
4BB	8F#L	4B	4d
.	8G#J	.	.
8F#L	4A	4c#	4a
8EJ	.	.	.
=2	=2	=2	=2
8DL	4A	4f#	8.bL
8BBJ	.	.	.
.	.	.	32cc#LL
.	.	.	32ddJJJ
4E	4G#	4e	4b
4AA;	4c#;	4e;	4a;
4D	4d	4f#	4a
=3	=3	=3	=3
4G	4d	4g	4b
8F#L	4e	4g	4cc#
8EJ	.	.	.
8F#L	8AL	4f#	4dd
8G#J	8BJ	.	.
4A	4c#	8eL	4cc#
.	.	8aJ	.
=4	=4	=4	=4
4D	8F#L	4a	8bL
.	8f#J	.	8ddJ
4E	8eL	4g#	8cc#L
.	8dJ	.	8bJ
4AA;	4c#;	4e;	4a;
4D	4A	4d	4f#
=5	=5	=5	=5
4GnX	4GnX	4d	4b
4F#	4A	4d	4a
4E	8BL	8dL	4g
.	8GJ	8c#J	.
4D	4A	4d	4f#
=6	=6	=6	=6
2AA	4.A	4d	2e
.	.	4c#	.
.	8G	.	.
4D;	4F#;	4A;	4d;
=:|!	=:|!	=:|!	=:|!
*>B	*>B	*>B	*>B
4r	4ry	4ry	4r
=7	=7	=7	=7
2C#	2A	2e	2a
2D;	2A;	2d;	2f#;
=8	=8	=8	=8
2AA	2c#	2e	2a
2D;	2A;	2d;	2f#;
=9	=9	=9	=9
8DL	4A	4d	4f#
8EJ	.	.	.
8F#L	4A	4d	4f#
8GJ	.	.	.
8AL	4A	4c#	4e
8BJ	.	.	.
8AL	4A	4c#	4e
8GJ	.	.	.
=10	=10	=10	=10
8F#L	4A	4d	4f#
8EJ	.	.	.
8F#L	4A	4d	4f#
8DJ	.	.	.
8AAL	4A	4c#	4e
8AJ	.	.	.
8GL	4A	4d#	4f#
8F#J	.	.	.
=11	=11	=11	=11
4E	8BL	4e	4g
.	8c#J	.	.
8BL	4d	8dnXL	4f#
8AJ	.	8c#J	.
4G	8dL	4B	2e
.	16c#L	.	.
.	16BJJ	.	.
4A	8AL	4c#	.
.	8GJ	.	.
=12	=12	=12	=12
2D;	2F#;	2A;	2d;
4BB	8F#L	4f#	4dd
.	8G#J	.	.
4FF#	4A#	8f#L	4cc#
.	.	8eJ	.
=13	=13	=13	=13
4GG	4B	8dL	4b
.	.	8eJ	.
4AA	4c#	4f#	4a
8BBL	8dL	8f#L	4g
8C#J	8eJ	8eJ	.
4D	4A	8eL	4f#
.	.	8dJ	.
=14	=14	=14	=14
4GG	4B	8dL	2e
.	.	16c#L	.
.	.	16BJJ	.
4AA	8AL	4c#	.
.	8GJ	.	.
4DD;	4F#;	4A;	4d;
==	==	==	==
*-	*-	*-	*-
!!!hum2abc: -Q ''
!!!title: @{PC#}. @{OTL@@DE}
!!!YOR1: 371 vierstimmige Choralges&auml;nge von Johann Sebastian Bach, 
!!!YOR2: 4th ed. by Alfred D&ouml;rffel (Leipzig: Breitkopf und H&auml;rtel, 
!!!YOR2: c.1875). 178 pp. Plate "V.A.10".  reprint: J.S. Bach, 371 Four-Part 
!!!YOR4: Chorales (New York: Associated Music Publishers, Inc., c.1940).
!!!SMS: B&H, 4th ed, Alfred D&ouml;rffel, c.1875, plate V.A.10
!!!EED:  Craig Stuart Sapp
!!!EEV:  2009/05/22
